X: 31910
T: Peacock's Feathers, The
R: hornpipe
M: 4/4
K: Adorian
|:cABG AAAB|cABc d2cd|eaaa aged|cEEF G2ed|
cABG AAAB|cABc d2cd|eaab aged|1 cAAG A2ed:|2 cAAG A3G|
ggge aaag|agec d2cd|eaag aged|ccEF G2ed|
cABG AAAB|cABc d2cd|eaag aged|1 ccAG A3G|2 ccAG A2ed|

